images/pagespeed.svg

<svg height="62" viewBox="0 0 62 62" width="62" xmlns="http://www.w3.org/2000/svg"><g fill="none" fill-rule="evenodd"><circle cx="31" cy="31" fill="#def8e9" r="28.5" stroke="#18ce69" stroke-width="5"/><path d="m21.1413161 41c1.6828479 0 3.1109313-.2345972 4.2842502-.7037915 1.173319-.4691943 2.0918735-1.0829384 2.7556635-1.8412322 1.1032003-1.2511848 1.8230852-2.6848341 2.1596548-4.3009479.3365696-1.6161137.5048543-3.2251184.5048543-4.8270142v-.9526066c0-1.1279621-.154261-2.2582939-.4627831-3.3909953s-.7713053-2.078199-1.3883495-2.8364929c-.5235527-.6445497-1.1709817-1.1635071-1.942287-1.556872s-1.6805106-.5900474-2.727616-.5900474c-1.0471053 0-1.9656598.1919431-2.7556634.5758294-.7900036.3838862-1.4467817.8981042-1.9703344 1.542654-.5329018.6540284-.9325782 1.414692-1.1990291 2.2819905-.2664509.8672986-.3996764 1.7890996-.3996764 2.7654029 0 .8341232.1121899 1.6635071.3365696 2.4881516.2243797.8246446.574973 1.5639811 1.0517799 2.2180095.4768069.6540285 1.0821647 1.1824645 1.8160734 1.5853081.7339086.4028436 1.6057173.6042654 2.6154261.6042654.5235527 0 1.0073714-.0545024 1.4514563-.1635071.4440848-.1090048.8484358-.2582939 1.2130528-.4478673.3646171-.1895735.6918375-.4099526.9816613-.6611375.2898238-.2511848.5469256-.5189573.7713053-.8033175v.028436c-.0467458.8720379-.1823085 1.7156398-.4066882 2.5308057-.2243798.8151659-.6591155 1.578199-1.3042072 2.2890995-.5329018.5781991-1.2364257 1.0260664-2.1105717 1.3436019-.874146.3175356-1.9656598.4763033-3.2745415.4763033h-.2664509v2.3459716zm3.0992448-9.1137441c-.6263933 0-1.1709816-.1398104-1.6337648-.4194313-.4627832-.2796208-.8437612-.6469194-1.1429342-1.1018957-.3085221-.4549763-.5375764-.9739336-.6871629-1.556872s-.2243797-1.1777251-.2243797-1.7843602c0-.6824645.0841424-1.3199052.2524272-1.9123223s.4160374-1.1066351.7432578-1.542654c.3178713-.4265403.7105358-.7630332 1.1779935-1.0094787.4674578-.2464455 1.0050342-.3696682 1.6127293-.3696682.5329018 0 1.0354189.1327014 1.5075512.3981042.4721323.2654029.890507.6445498 1.2551241 1.1374408.3552679.5023697.6380798 1.1137441.8484358 1.8341232.210356.7203792.315534 1.5402844.315534 2.4597156v.8530806c-.1589357.4454976-.3763035.8507109-.6521036 1.2156398s-.5866595.6800948-.9325782.9454977c-.3552679.2748815-.7409205.4857819-1.1569579.6327014-.4160374.1469194-.8437613.2203791-1.2831716.2203791zm19.7594391 9.0995261v-20.7014218h-.210356l-7.7270766 3.014218v2.4028436l5.3430421-2.0616114v17.3459716z" fill="#00d45a" fill-rule="nonzero"/></g></svg>

<?xml version="1.0" encoding="UTF-8"?>
<svg width="62px" height="62px" viewBox="0 0 62 62" version="1.1" xmlns="http://www.w3.org/2000/svg" xmlns:xlink="http://www.w3.org/1999/xlink">
    <title>Group 12</title>
    <g id="🏗-Landing-Page" stroke="none" stroke-width="1" fill="none" fill-rule="evenodd">
        <g id="Site/Features/Hosting" transform="translate(-717.000000, -1348.000000)">
            <g id="1-Host" transform="translate(40.000000, 769.000000)">
                <g id="Group-15" transform="translate(100.000000, 120.000000)">
                    <g id="Speed-Test" transform="translate(0.000000, 268.000000)">
                        <g id="Group-16" transform="translate(60.000000, 54.000000)">
                            <g id="Group-7" transform="translate(517.000000, 21.000000)">
                                <g id="Group-12" transform="translate(0.000000, 116.000000)">
                                    <circle id="Oval" stroke="#18CE69" stroke-width="5" fill="#DEF8E9" cx="31" cy="31" r="28.5"></circle>
                                    <path d="M21.1413161,41 C22.824164,41 24.2522474,40.7654028 25.4255663,40.2962085 C26.5988853,39.8270142 27.5174398,39.2132701 28.1812298,38.4549763 C29.2844301,37.2037915 30.004315,35.7701422 30.3408846,34.1540284 C30.6774542,32.5379147 30.8457389,30.92891 30.8457389,29.3270142 L30.8457389,28.3744076 C30.8457389,27.2464455 30.6914779,26.1161137 30.3829558,24.9834123 C30.0744337,23.8507109 29.6116505,22.9052133 28.9946063,22.1469194 C28.4710536,21.5023697 27.8236246,20.9834123 27.0523193,20.5900474 C26.281014,20.1966825 25.3718087,20 24.3247033,20 C23.277598,20 22.3590435,20.1919431 21.5690399,20.5758294 C20.7790363,20.9597156 20.1222582,21.4739336 19.5987055,22.1184834 C19.0658037,22.7725118 18.6661273,23.5331754 18.3996764,24.4004739 C18.1332255,25.2677725 18,26.1895735 18,27.1658768 C18,28 18.1121899,28.8293839 18.3365696,29.6540284 C18.5609493,30.478673 18.9115426,31.2180095 19.3883495,31.8720379 C19.8651564,32.5260664 20.4705142,33.0545024 21.2044229,33.457346 C21.9383315,33.8601896 22.8101402,34.0616114 23.819849,34.0616114 C24.3434017,34.0616114 24.8272204,34.007109 25.2713053,33.8981043 C25.7153901,33.7890995 26.1197411,33.6398104 26.4843581,33.450237 C26.8489752,33.2606635 27.1761956,33.0402844 27.4660194,32.7890995 C27.7558432,32.5379147 28.012945,32.2701422 28.2373247,31.985782 L28.2373247,32.014218 C28.1905789,32.8862559 28.0550162,33.7298578 27.8306365,34.5450237 C27.6062567,35.3601896 27.171521,36.1232227 26.5264293,36.8341232 C25.9935275,37.4123223 25.2900036,37.8601896 24.4158576,38.1777251 C23.5417116,38.4952607 22.4501978,38.6540284 21.1413161,38.6540284 L20.8748652,38.6540284 L20.8748652,41 L21.1413161,41 Z M24.2405609,31.8862559 C23.6141676,31.8862559 23.0695793,31.7464455 22.6067961,31.4668246 C22.1440129,31.1872038 21.7630349,30.8199052 21.4638619,30.3649289 C21.1553398,29.9099526 20.9262855,29.3909953 20.776699,28.8080569 C20.6271125,28.2251185 20.5523193,27.6303318 20.5523193,27.0236967 C20.5523193,26.3412322 20.6364617,25.7037915 20.8047465,25.1113744 C20.9730313,24.5189573 21.2207839,24.0047393 21.5480043,23.5687204 C21.8658756,23.1421801 22.2585401,22.8056872 22.7259978,22.5592417 C23.1934556,22.3127962 23.731032,22.1895735 24.3387271,22.1895735 C24.8716289,22.1895735 25.374146,22.3222749 25.8462783,22.5876777 C26.3184106,22.8530806 26.7367853,23.2322275 27.1014024,23.7251185 C27.4566703,24.2274882 27.7394822,24.8388626 27.9498382,25.5592417 C28.1601942,26.2796209 28.2653722,27.0995261 28.2653722,28.0189573 L28.2653722,28.8720379 C28.1064365,29.3175355 27.8890687,29.7227488 27.6132686,30.0876777 C27.3374685,30.4526066 27.0266091,30.7677725 26.6806904,31.0331754 C26.3254225,31.3080569 25.9397699,31.5189573 25.5237325,31.6658768 C25.1076951,31.8127962 24.6799712,31.8862559 24.2405609,31.8862559 Z M44,40.985782 L44,20.2843602 L43.789644,20.2843602 L36.0625674,23.2985782 L36.0625674,25.7014218 L41.4056095,23.6398104 L41.4056095,40.985782 L44,40.985782 Z" id="91" fill="#00D45A" fill-rule="nonzero"></path>
                                </g>
                            </g>
                        </g>
                    </g>
                </g>
            </g>
        </g>
    </g>
</svg>
